X:1
T:BWV 0798
T:Sinfonia 12
T:Johann Sebastian Bach
%%score { ( 1 3 ) | 2 }
L:1/8
Q:1/4=96
M:4/4
K:A
V:1 treble nm="Harp"
V:3 treble 
V:2 bass 
V:1
"^Andante" AG/A/ BA/G/ A2- A/B/G/A/ | B/E/c/E/ d/E/e c/B/A/B/ c/^d/e/f/ | %2
 g/a/b- b/a/g/f/ e/^d/c/B/ e2- | e2 ^d2 e=d/c/ d/e/f/g/ | a>a g>g f>f e>e | dc B2 Ac f2- | %6
 fB e2- e^d/e/ fe/d/ | e2- e/f/^d/e/ f/B/g/B/ a/B/b | g/a/b/a/ g/f/e/=d/ c4- | cc/d/ ed/c/ B4- | %10
 BB/c/ dc/B/ A4- | AA/B/ cB/A/ G4- | GG/A/ BA/G/ A^A/^B/ cB/A/ | ^BB/c/ ^dc/B/ cG/A/ =BA/G/ | %14
 A/F/G/A/ B/c/d/=e/ d>d c>c | BA G2 Fc f2- | fB g2- gc a2- | a^d ba gg/a/ ba/g/ | a2 g2 f2 a2- | %19
 ag/a/ b/a/g/f/ e/d/c/B/ A/c/e/=g/ | f4- fd/e/ fe/d/ | e4- ec/d/ ed/c/ | d4- dB/c/ dc/B/ | %23
 c/A/f- f/^d/e- e/c/=d- d/B/c | G A2 G AG/A/ BA/G/ | A2- A/B/G/A/ B/E/c/E/ d/E/e | %26
 c/B/A/B/ c/d/e/f/ B/A/G/A/ B/c/d/e/ | A/G/F/G/ A/B/c/d/ G/B/G/E/ e2- | e/e/c/A/ a2- a/B/d/f/ g2- | %29
 g/A/c/e/ f2- f/e/^d/e/ f z | c>d B>A A4 |] %31
V:2
 A, z G, z F, z C, z | D, z E, z A,,A,G,F, | E, z ^D z C z G, z | A, z B, z E z z2 | %4
 A,G,/A,/ B,A,/G,/ A,2- A,/B,/G,/A,/ | B,/E,/C/E,/ D/E,/E C/B,/A,/B,/ C/^D/E/F/ | %6
 B,/A,/G,/A,/ B,/C/^D/E/ A,/G,/F,/G,/ A,/G,/A,/B,/ | G,A,/B,/ C2- C/B,/A,/G,/ E,B, | %8
 E,2 z/ A,/G,/F,/ ^E,/C,/F,/C,/ G,/C,/E,/C,/ | %9
 F,/C,/G,/C,/ F,/C,/E,/C,/ ^D,/B,,/E,/B,,/ F,/B,,/D,/B,,/ | %10
 E,/B,,/F,/B,,/ E,/B,,/D,/B,,/ C,/A,,/D,/A,,/ E,/A,,/C,/A,,/ | %11
 D,/A,,/E,/A,,/ D,/A,,/C,/A,,/ B,,/G,,/C,/G,,/ =D,/G,,/B,,/G,,/ | C,8- | %13
 C,4 z/ =D/C/B,/ C/A,/B,/C/ | F,^E,/F,/ G,F,/^E,/ F,2- F,/G,/E,/F,/ | %15
 G,/C,/A,/C,/ B,/C,/C A,/B,/C/B,/ A,/G,/F,/=E,/ | B,/C/D/C/ B,/A,/G,/F,/ C/D/E/D/ C/B,/A,/G,/ | %17
 ^D/E/F/E/ D/C/B,/A,/ E4- | E8- | E/C/B,/A,/ G,/F,/E,/D,/ C,/A,/D,/A,/ E,/A,/C,/A,/ | %20
 D,/A,/E,/A,/ D,/A,/C,/A,/ B,,/G,/C,/G,/ D,/G,/B,,/G,/ | %21
 C,/G,/D,/G,/ C,/G,/B,,/G,/ ^A,,/F,/B,,/F,/ C,/F,/A,,/F,/ | %22
 B,,/F,/C,/F,/ B,,/F,/A,,/F,/ G,,/E,/E,,/E,/ F,,/E,/G,,/E,/ | %23
 A,,G,,/A,,/ B,,A,,/G,,/ A,,2- A,,/B,,/G,,/A,,/ | B,,/E,,/C,/E,,/ D,/E,,/E, C, F,2 ^E, | %25
 F,3 E, D,C, B,,E, | A,,2 z A, G,3 G, | F,3 F, E,4- | E,8- | E,4- E,/E,/G,/B,/ =C/G,/A,/^D,/ | %30
 E, z E,, z !fermata!A,,4 |] %31
V:3
 x8 | x8 | E^D/E/ FE/D/ E2- E/F/D/E/ | F/B,/G/B,/ A/B,/B G/A/B/A/ G/F/E/D/ | %4
 C/c/f- f/^d/e- e/c/=d- d/B/c | G A2 G A3 A | G3 G F4 | z/ ^d/c/B/ A/G/F/E/ ^D E2 D | %8
 E2 z2 z G/A/ BA/G/ | A4- AF/G/ AG/F/ | G4- G^E/F/ GF/E/ | F4- F^D/^E/ FE/D/ | %12
 ^EE/F/ GF/E/ F2 =E2 | ^D2 F4 ^E2 | F/ z/ z z2 z/ c/B- B/B/A | ^E F2 E F3 A | d2- dB e2- ec | %17
 f4- fB/c/ =dc/B/ | cc/^d/ ed/c/ dd/e/ fe/d/ | e4 z4 | z A/B/ cB/A/ G4- | GG/A/ BA/G/ F4- | %22
 FF/G/ AG/F/ E4- | E z/ A/ G>G F>F E>E | DC B,2 E/C/D- D/B,/C- | %25
 C/[I:staff +1]A,/B,/G,/ A,2- A,/G,/ A,2 G, | A,[I:staff -1]C F2- FB, E2- | %27
 E[I:staff +1]A, D2- DB,/C/ DC/B,/ | CA,/B,/ CB,/A,/ B,G,/A,/ B,A,/G,/ | %29
 A,F,/G,/ A,G,/F,/ G,[I:staff -1] z A z | A>B G2 !fermata!A4 |] %31

